svg/bar-chart.svg

<svg xmlns="http://www.w3.org/2000/svg" width="8" height="8" viewBox="0 0 8 8">
  <path d="M0 0v7h8v-1h-7v-6h-1zm5 0v5h2v-5h-2zm-3 2v3h2v-3h-2z" />
</svg>

<?xml version="1.0" encoding="UTF-8" standalone="no"?>
<svg
   width="8"
   height="8"
   viewBox="0 0 8 8"
   version="1.1"
   id="svg1"
   sodipodi:docname="bar-chart.svg"
   inkscape:version="1.3 (0e150ed6c4, 2023-07-21)"
   xmlns:inkscape="http://www.inkscape.org/namespaces/inkscape"
   xmlns:sodipodi="http://sodipodi.sourceforge.net/DTD/sodipodi-0.dtd"
   xmlns="http://www.w3.org/2000/svg"
   xmlns:svg="http://www.w3.org/2000/svg">
  <defs
     id="defs1" />
  <sodipodi:namedview
     id="namedview1"
     pagecolor="#505050"
     bordercolor="#eeeeee"
     borderopacity="1"
     inkscape:showpageshadow="0"
     inkscape:pageopacity="0"
     inkscape:pagecheckerboard="0"
     inkscape:deskcolor="#505050"
     showgrid="false"
     inkscape:zoom="94.88"
     inkscape:cx="3.9997892"
     inkscape:cy="3.9997892"
     inkscape:window-width="1254"
     inkscape:window-height="1041"
     inkscape:window-x="1297"
     inkscape:window-y="0"
     inkscape:window-maximized="0"
     inkscape:current-layer="svg1" />
  <rect
     style="fill:#ff1161;fill-rule:evenodd;stroke:#11a1ff;stroke-width:0;stroke-dasharray:none;stroke-opacity:0"
     id="rect3"
     width="7.9999952"
     height="7.9999881"
     x="2.3841858e-06"
     y="5.9604645e-06" />
  <path
     d="M 2,2 V 5 H 4 V 2 Z"
     id="path3"
     style="fill:#f6f0bc" />
  <path
     d="M 5,0 V 5 H 7 V 0 Z"
     id="path2"
     style="fill:#f6e04e" />
  <path
     d="M 0,0 V 7 H 8 V 6 H 1 V 0 Z"
     id="path1"
     style="fill:#11a1ff" />
</svg>
